X: 29
T: Sans jamais / Allez \`a la foug\`ere
N: Derived from Ano3035-Sans_jamais__Allez_a_la_fougere--Dijon_Chansonnier.krn
C: Anonymous
%%abc-version 2.0
%%abcx-abcm2ps-target-version 5.9.1 (29 Sep 2008)
%%abc-creator hum2abc beta
%%abcx-conversion-date 2019/02/16 20:18:27
%%abc-edited-by Jesse Rodin
%%abc-edited-by Chris Gage 03-06-2015
%%abcx-initial-encoding-date 2015/03/13/
%%humdrum-veritas 4208992847
%%humdrum-veritas-data 180410921
%%linebreak <none>
%%barnumbers 0
L: 1/4
M: 2/1
Q: 1/2=120
%%staves [1 2 3 4]
V: 1 clef=treble
V: 2 clef=treble-8
V: 3 clef=treble-8
V: 4 clef=bass
K: F
[V:1] G8 | 
[V:2] d4e4 | 
[V:3] z8 | 
[V:4] G,8 | 
[V:1] A4B4 | 
[V:2] f2d4e2- | 
[V:3] z8 | 
[V:4] F,4G,4 | 
[V:1] c4B2G2 | 
[V:2] e2f4d2 | 
[V:3] z8 | 
[V:4] A,4B,4 | 
[V:1] A2B2c4 | 
[V:2] e2g4^f2 | 
[V:3] z8 | 
[V:4] C2G,2A,4 | 
[V:1] B3cd2_e2- | 
[V:2] g4z4 | 
[V:3] d8 | 
[V:4] G,8 | 
[V:1] e2c4=B2 | 
[V:2] g4f4 | 
[V:3] G4d4 | 
[V:4] _E,4D,4 | 
[V:1] c4z4 | 
[V:2] g2a4f2- | 
[V:3] _e4d4 | 
[V:4] C,4D,3E, | 
[V:1] A4B4 | 
[V:2] f2a2d2e2- | 
[V:3] c4B4 | 
[V:4] F,4G,4 | 
[V:1] A3Bc4 | 
[V:2] e2c2e2f2 | 
[V:3] c8 | 
[V:4] A,8 | 
[V:1] B4A2B2- | 
[V:2] g4f2d2 | 
[V:3] d4d4 | 
[V:4] G,4D,2G,2- | 
[V:1] BGG4^F2 | 
[V:2] g2fed3c | 
[V:3] B2c2A4 | 
[V:4] G,2C,2D,4 | 
[V:1] G6A2 | 
[V:2] d6ef | 
[V:3] G8 | 
[V:4] z4B,4 | 
[V:1] Bcd4^c2 | 
[V:2] g2d2e4 | 
[V:3] z8 | 
[V:4] G,2B,2A,4 | 
[V:1] d6cB | 
[V:2] d4g4 | 
[V:3] G4G4 | 
[V:4] z8 | 
[V:1] A8 | 
[V:2] f6ed | 
[V:3] d4d4 | 
[V:4] D,8 | 
[V:1] c4B4 | 
[V:2] c4g4 | 
[V:3] e4e4 | 
[V:4] A,4G,4 | 
[V:1] c8 | 
[V:2] e4f4 | 
[V:3] c8 | 
[V:4] A,4F,4- | 
[V:1] A8 | 
[V:2] z4d4 | 
[V:3] f8 | 
[V:4] F,4D,4 | 
[V:1] c4d4 | 
[V:2] e3fg4 | 
[V:3] e4d4 | 
[V:4] A,4B,2G,2- | 
[V:1] B4c4 | 
[V:2] d2g4^f2 | 
[V:3] d4c4 | 
[V:4] G,2B,2A,4 | 
[V:1] B8 | 
[V:2] [M:2/1](3g4d4e4 | 
[V:3] d8 | 
[V:4] G,8 | 
[V:1] A4B4 | 
[V:2] [M:2/1]fcf2e2d2 | 
[V:3] z8 | 
[V:4] F,4G,4 | 
[V:1] c4A4 | 
[V:2] c4d4 | 
[V:3] z8 | 
[V:4] A,4F,4 | 
[V:1] G8 | 
[V:2] e6g2 | 
[V:3] z8 | 
[V:4] E,8 | 
[V:1] A6B2 | 
[V:2] f3ga2f2 | 
[V:3] d4f4 | 
[V:4] D,8 | 
[V:1] c4B4 | 
[V:2] g6e2 | 
[V:3] e4d4 | 
[V:4] C,4G,4 | 
[V:1] A4G4 | 
[V:2] e8- | 
[V:3] c4B4 | 
[V:4] A,4E,4 | 
[V:1] A6B2 | 
[V:2] e8 | 
[V:3] A8 | 
[V:4] A,2C3B,A,G, | 
[V:1] c4d4- | 
[V:2] f8- | 
[V:3] A8 | 
[V:4] F,4D,3C, | 
[V:1] d4A4 | 
[V:2] f8 | 
[V:3] d6c2 | 
[V:4] D,3E,F,4 | 
[V:1] B4c4- | 
[V:2] d4f4 | 
[V:3] B4A3B | 
[V:4] G,4F,3E,/D,/ | 
[V:1] c4A4- | 
[V:2] e4f4- | 
[V:3] G4F4 | 
[V:4] C,4D,4- | 
[V:1] A8- | 
[V:2] f2g2a4 | 
[V:3] A8 | 
[V:4] D,4F,4 | 
[V:1] A4B3A | 
[V:2] f4g2f2 | 
[V:3] d4d4 | 
[V:4] D,4G,2D,2 | 
[V:1] G2G4^F2 | 
[V:2] e3dd3c | 
[V:3] B2c2A4 | 
[V:4] E,2C,2D,4 | 
[V:1] G8- | 
[V:2] d8 | 
[V:3] G8- | 
[V:4] D8- | 
[V:1] G8 |]  
[V:2] d8 |]  
[V:3] G8 |]  
[V:4] D8 |]  



